X:1
T:Title
%%score { ( 1 4 ) | ( 2 3 ) }
L:1/8
M:4/4
K:D
V:1 treble nm="Grand Piano"
V:4 treble 
V:2 bass 
V:3 bass 
V:1
 z4 z2[Q:1/4=100] [DF]>[EG] | [FA]3 [FA] [=F^G][^FA][=GB]A | [DFA]2 [A,DF]4 [DFA]>[DFA] | %3
 [DFA]2 [A,EG]4 [CGB]>[CGB] |[M:3/4] [DGB]2 [DFA]4 |[M:1/4] [A,DF]>[A,EG] | %6
[M:4/4] [FA]3 [FA] [=F^G]A .[DAd]2 | [DAc]2 B4 d>d | d2 A4 [EG][DF] | E2 z2 z [A,DF]3 | %10
[M:1/4] [DFA]>[DFA] |[M:4/4] [DFA]2 [EG]F [CE]FGB | [DGB]2 [DFA]4 [DFA]>[DFA] | %13
 [DFA]2 [EG]F [CE]FGA |[M:3/4] [GB]2 [FA]4 |[M:1/4] [FA]>[FA] |[M:4/4] [FA]2 [DF][FA] [Fd]2 [Ac]2 | %17
 [Ac]2 B4 d>d | d2 A4 [EG][DF] | E2 A2- A D3 |] %20
V:2
 z4 z2 [D,A,]>[D,A,] | [D,D]3 [D,D] [D,D]2 z F | D,2 D,4 D,>D, | A,,2 A,,4 A,,>A,, | %4
[M:3/4] D,2 D,4 |[M:1/4] D,>D, |[M:4/4] [D,D]3 [D,D] z[K:treble] F z c | %7
 G,2 [G,DG]4 [^G,B,=F]>[G,B,F] | [A,F]2 [A,F]4[K:bass] [A,,A,][A,,A,] | %9
 z2[K:treble] A2- A[K:bass] D,3 |[M:1/4] D,>F, |[M:4/4] A,2 z D z[K:treble] DEG | D,2 D,4 D,>F, | %13
 A,2 z[K:treble] D z DEF |[M:3/4][K:bass] [D,D]2 [D,D]4 |[M:1/4] [D,D]>[D,D] | %16
[M:4/4] [D,D]2 [D,A,]2 [D,A,]2 [F,D]2 | [G,D]2 [G,DG]4 [^G,B,=F]>[G,B,F] | %18
 [A,F]2 [A,F]4[K:bass] [A,,A,][A,,A,] | [A,,G,]4- [A,,G,] [D,F,]3 |] %20
V:3
 x8 | z4 z2 [D,D]2 | x8 | x8 |[M:3/4] x6 |[M:1/4] x2 |[M:4/4] z4 [D,D]2[K:treble] F,2 | x8 | %8
 x6[K:bass] x2 | [A,,A,]6[K:treble][K:bass] z2 |[M:1/4] x2 |[M:4/4] z2 A,2 A,2[K:treble] [A,C]2 | %12
 x8 | z2 A,2[K:treble] A,2 [A,C]2 |[M:3/4][K:bass] x6 |[M:1/4] x2 |[M:4/4] x8 | x8 | %18
 x6[K:bass] x2 | x8 |] %20
V:4
 x8 | x8 | x8 | x8 |[M:3/4] x6 |[M:1/4] x2 |[M:4/4] x8 | x8 | x8 | C6 z2 |[M:1/4] x2 |[M:4/4] x8 | %12
 x8 | x8 |[M:3/4] x6 |[M:1/4] x2 |[M:4/4] x8 | x8 | x8 | C6 z2 |] %20

